src/gui/emoticons/question.svg

<svg xmlns="http://www.w3.org/2000/svg" xmlns:xlink="http://www.w3.org/1999/xlink" width="16pt" height="16pt" version="1.1" viewBox="0 0 16 16"><defs><linearGradient id="linear0" x1="64" x2="64" y1="20.717" y2="108.7" gradientTransform="matrix(0.125,0,0,0.125,0,0)" gradientUnits="userSpaceOnUse"><stop offset=".451" style="stop-color:#fee133;stop-opacity:1"/><stop offset=".544" style="stop-color:#fdd831;stop-opacity:1"/><stop offset=".698" style="stop-color:#fabf2a;stop-opacity:1"/><stop offset=".837" style="stop-color:#f6a323;stop-opacity:1"/></linearGradient><linearGradient id="linear1" x1="14.615" x2="46.992" y1="115.8" y2="64.922" gradientTransform="matrix(0.125,0,0,0.125,0,0)" gradientUnits="userSpaceOnUse"><stop offset=".008" style="stop-color:#f6a323;stop-opacity:1"/><stop offset=".025" style="stop-color:#f7a724;stop-opacity:1"/><stop offset=".145" style="stop-color:#fac12b;stop-opacity:1"/><stop offset=".27" style="stop-color:#fcd32f;stop-opacity:1"/><stop offset=".401" style="stop-color:#fede32;stop-opacity:1"/><stop offset=".549" style="stop-color:#fee133;stop-opacity:1"/></linearGradient></defs><g id="surface1"><path style="stroke:none;fill-rule:nonzero;fill:url(#linear0)" d="M 8 15.109375 C 4.507812 15.109375 0.75 12.925781 0.75 8.125 C 0.75 3.324219 4.507812 1.140625 8 1.140625 C 9.933594 1.140625 11.726562 1.777344 13.046875 2.941406 C 14.488281 4.214844 15.25 6.007812 15.25 8.125 C 15.25 10.234375 14.488281 12.019531 13.046875 13.296875 C 11.722656 14.46875 9.929688 15.109375 8 15.109375 Z M 8 15.109375"/><path style="stroke:none;fill-rule:nonzero;fill:#eb8f00;fill-opacity:1" d="M 8 1.390625 C 9.875 1.390625 11.609375 2.007812 12.878906 3.128906 C 14.265625 4.355469 15 6.082031 15 8.125 C 15 10.160156 14.265625 11.882812 12.878906 13.109375 C 11.601562 14.238281 9.871094 14.859375 8 14.859375 C 6.121094 14.859375 4.386719 14.246094 3.121094 13.132812 C 1.734375 11.914062 1 10.183594 1 8.125 C 1 6.058594 1.734375 4.324219 3.121094 3.105469 C 4.382812 2 6.117188 1.390625 8 1.390625 M 8 0.890625 C 4.105469 0.890625 0.5 3.390625 0.5 8.125 C 0.5 12.835938 4.105469 15.359375 8 15.359375 C 11.894531 15.359375 15.5 12.769531 15.5 8.125 C 15.5 3.453125 11.894531 0.890625 8 0.890625 Z M 8 0.890625"/><path style="fill-rule:nonzero;fill:#eb8f00;fill-opacity:1;stroke-width:1;stroke-linecap:butt;stroke-linejoin:miter;stroke:#eb8f00;stroke-opacity:1;stroke-miterlimit:10" d="M 39.625 10.6875 C 39.1875 9.9375 39.125 9.03125 39.46875 8.25 C 39.8125 7.5 40.53125 6.96875 41.4375 6.8125 C 46.75 5.90625 52.40625 7.1875 57 10.34375 C 58.6875 11.5 60.21875 12.875 61.46875 14.46875 C 61.5625 14.59375 61.625 14.6875 61.6875 14.8125 C 62.375 15.9375 62.15625 17.25 61.15625 18.0625 C 60.28125 18.8125 58.75 19.03125 57.59375 18 L 58 17.3125 L 57.5 17.90625 C 53.1875 14.28125 47.5 12.125 41.9375 12 C 40.96875 12 40.125 11.5 39.625 10.6875 Z M 39.625 10.6875" transform="matrix(0.125,0,0,0.125,0,0)"/><path style="fill-rule:nonzero;fill:#eb8f00;fill-opacity:1;stroke-width:1;stroke-linecap:butt;stroke-linejoin:miter;stroke:#eb8f00;stroke-opacity:1;stroke-miterlimit:10" d="M 90.65625 18.28125 C 91.46875 18.625 92.0625 19.34375 92.21875 20.15625 C 92.375 21 92.125 21.8125 91.4375 22.5 C 87.65625 26.3125 82.28125 28.53125 76.71875 28.625 C 74.65625 28.65625 72.625 28.375 70.65625 27.8125 C 70.53125 27.78125 70.40625 27.71875 70.3125 27.65625 C 69.09375 27.125 68.53125 25.9375 68.84375 24.71875 C 69.15625 23.59375 70.25 22.53125 71.8125 22.6875 L 71.875 23.5 L 71.9375 22.71875 C 77.5625 23.1875 83.4375 21.65625 88.03125 18.5625 C 88.8125 18 89.78125 17.875 90.65625 18.28125 Z M 90.65625 18.28125" transform="matrix(0.125,0,0,0.125,0,0)"/><path style="stroke:none;fill-rule:nonzero;fill:#242424;fill-opacity:1" d="M 9.515625 8.6875 C 9.472656 8.679688 9.4375 8.660156 9.40625 8.632812 C 8.871094 8.171875 8.207031 7.84375 7.464844 7.679688 C 6.726562 7.511719 5.984375 7.519531 5.304688 7.707031 C 5.265625 7.71875 5.222656 7.71875 5.183594 7.710938 C 5.097656 7.6875 5.03125 7.617188 5.015625 7.527344 C 5 7.441406 5.035156 7.355469 5.109375 7.304688 C 5.847656 6.792969 6.769531 6.621094 7.660156 6.820312 C 8.546875 7.019531 9.304688 7.574219 9.753906 8.351562 C 9.800781 8.429688 9.796875 8.523438 9.742188 8.59375 C 9.691406 8.667969 9.601562 8.703125 9.515625 8.6875 Z M 9.515625 8.6875"/><path style="stroke:none;fill-rule:nonzero;fill:url(#linear1)" d="M 3.398438 15.441406 C 2.890625 15.441406 2.441406 15.296875 2.023438 15 C 1.246094 14.445312 1.113281 13.535156 1 12.734375 C 0.933594 12.285156 0.984375 12.003906 1.03125 11.753906 C 1.078125 11.488281 1.117188 11.257812 1.019531 10.828125 C 0.996094 10.730469 0.929688 10.574219 0.867188 10.425781 C 0.683594 10.007812 0.476562 9.53125 0.730469 9.226562 C 0.863281 9.0625 1.09375 8.96875 1.359375 8.96875 C 1.601562 8.96875 1.832031 9.046875 1.992188 9.1875 C 2.332031 9.480469 2.492188 9.796875 2.679688 10.535156 C 2.757812 10.839844 2.863281 10.929688 3.027344 10.992188 C 3.0625 11.007812 3.101562 11.015625 3.148438 11.015625 C 3.339844 11.015625 3.652344 10.914062 4.199219 10.679688 C 4.40625 10.589844 4.667969 10.464844 4.945312 10.328125 C 5.800781 9.90625 6.773438 9.433594 7.433594 9.433594 C 7.542969 9.433594 7.640625 9.445312 7.730469 9.472656 C 8.039062 9.558594 8.246094 9.765625 8.300781 10.03125 C 8.359375 10.300781 8.25 10.59375 8.027344 10.78125 C 7.796875 10.976562 6.777344 11.453125 6.15625 11.683594 C 6.207031 11.734375 6.25 11.789062 6.285156 11.851562 C 6.378906 12.039062 6.378906 12.269531 6.285156 12.558594 C 6.265625 12.613281 6.242188 12.660156 6.21875 12.695312 C 6.398438 12.917969 6.445312 13.1875 6.355469 13.476562 C 6.335938 13.542969 6.308594 13.597656 6.273438 13.644531 C 6.355469 13.734375 6.445312 13.890625 6.40625 14.140625 C 6.3125 14.726562 5.6875 14.910156 4.824219 15.164062 C 4.734375 15.191406 4.640625 15.21875 4.546875 15.246094 C 4.113281 15.378906 3.738281 15.441406 3.398438 15.441406 Z M 3.398438 15.441406"/><path style="stroke:none;fill-rule:nonzero;fill:#eb8f00;fill-opacity:1" d="M 1.359375 9.222656 C 1.527344 9.222656 1.703125 9.273438 1.828125 9.378906 C 2.125 9.636719 2.261719 9.90625 2.4375 10.601562 C 2.53125 10.972656 2.6875 11.132812 2.9375 11.230469 C 3 11.253906 3.070312 11.265625 3.148438 11.265625 C 3.390625 11.265625 3.730469 11.15625 4.296875 10.914062 C 5.105469 10.570312 6.613281 9.6875 7.433594 9.6875 C 7.515625 9.6875 7.59375 9.695312 7.660156 9.714844 C 8.171875 9.863281 8.152344 10.351562 7.863281 10.59375 C 7.664062 10.761719 6.53125 11.300781 5.914062 11.507812 C 5.46875 11.660156 5.382812 11.707031 5.390625 11.742188 C 5.390625 11.75 5.402344 11.753906 5.417969 11.753906 C 5.457031 11.753906 5.535156 11.738281 5.621094 11.738281 C 5.671875 11.738281 5.722656 11.742188 5.777344 11.761719 C 6.175781 11.882812 6.128906 12.222656 6.042969 12.484375 C 5.980469 12.671875 5.863281 12.640625 5.882812 12.734375 C 5.890625 12.773438 5.972656 12.800781 6 12.835938 C 6.125 12.976562 6.1875 13.160156 6.113281 13.40625 C 6.089844 13.476562 6.066406 13.515625 5.996094 13.558594 C 5.929688 13.601562 5.921875 13.65625 5.976562 13.714844 C 6.042969 13.789062 6.195312 13.84375 6.15625 14.105469 C 6.078125 14.578125 5.445312 14.71875 4.472656 15.007812 C 4.074219 15.128906 3.71875 15.191406 3.398438 15.191406 C 2.9375 15.191406 2.542969 15.0625 2.167969 14.796875 C 1.5 14.324219 1.371094 13.570312 1.246094 12.699219 C 1.117188 11.824219 1.46875 11.671875 1.261719 10.769531 C 1.175781 10.394531 0.691406 9.660156 0.917969 9.386719 C 1.011719 9.277344 1.179688 9.222656 1.359375 9.222656 M 1.359375 8.722656 C 1.015625 8.722656 0.714844 8.847656 0.535156 9.070312 C 0.183594 9.492188 0.433594 10.066406 0.636719 10.527344 C 0.695312 10.660156 0.757812 10.808594 0.777344 10.882812 C 0.863281 11.265625 0.828125 11.453125 0.785156 11.710938 C 0.738281 11.964844 0.679688 12.28125 0.75 12.769531 C 0.875 13.625 1.015625 14.589844 1.878906 15.207031 C 2.339844 15.53125 2.835938 15.691406 3.402344 15.691406 C 3.765625 15.691406 4.164062 15.625 4.617188 15.488281 C 4.710938 15.460938 4.800781 15.433594 4.890625 15.410156 C 5.808594 15.140625 6.53125 14.925781 6.652344 14.183594 C 6.691406 13.941406 6.640625 13.761719 6.566406 13.632812 C 6.578125 13.605469 6.585938 13.578125 6.59375 13.554688 C 6.691406 13.242188 6.65625 12.9375 6.503906 12.679688 C 6.511719 12.667969 6.515625 12.652344 6.519531 12.640625 C 6.558594 12.515625 6.679688 12.15625 6.535156 11.808594 C 7.148438 11.554688 7.960938 11.167969 8.1875 10.976562 C 8.484375 10.726562 8.621094 10.347656 8.546875 9.984375 C 8.46875 9.625 8.199219 9.351562 7.800781 9.234375 C 7.691406 9.203125 7.566406 9.1875 7.433594 9.1875 C 6.714844 9.1875 5.714844 9.675781 4.835938 10.105469 C 4.5625 10.238281 4.300781 10.367188 4.101562 10.453125 C 3.785156 10.585938 3.34375 10.765625 3.148438 10.765625 C 3.132812 10.765625 3.121094 10.761719 3.117188 10.761719 C 3.039062 10.734375 2.984375 10.710938 2.921875 10.476562 C 2.746094 9.769531 2.582031 9.371094 2.15625 9 C 1.949219 8.824219 1.660156 8.722656 1.359375 8.722656 Z M 1.359375 8.722656"/><path style="stroke:none;fill-rule:nonzero;fill:#242424;fill-opacity:1" d="M 10.097656 3.890625 C 10.621094 3.890625 11.097656 4.332031 11.097656 5.066406 C 11.097656 5.800781 10.621094 6.242188 10.097656 6.242188 C 9.574219 6.242188 9.097656 5.800781 9.097656 5.066406 C 9.097656 4.332031 9.574219 3.890625 10.097656 3.890625 Z M 10.097656 3.890625"/><path style="stroke:none;fill-rule:nonzero;fill:#242424;fill-opacity:1" d="M 5.765625 2.753906 C 5.242188 2.753906 4.765625 3.195312 4.765625 3.929688 C 4.765625 4.667969 5.242188 5.109375 5.765625 5.109375 C 6.292969 5.109375 6.765625 4.667969 6.765625 3.929688 C 6.765625 3.195312 6.292969 2.753906 5.765625 2.753906 Z M 5.765625 2.753906"/></g></svg>

<svg xmlns="http://www.w3.org/2000/svg" width="16pt" height="16pt" viewBox="0 0 16 16"><defs><linearGradient id="a" x1="64" x2="64" y1="20.717" y2="108.7" gradientTransform="scale(.125)" gradientUnits="userSpaceOnUse"><stop offset=".451" style="stop-color:#fee133;stop-opacity:1"/><stop offset=".544" style="stop-color:#fdd831;stop-opacity:1"/><stop offset=".698" style="stop-color:#fabf2a;stop-opacity:1"/><stop offset=".837" style="stop-color:#f6a323;stop-opacity:1"/></linearGradient><linearGradient id="b" x1="14.615" x2="46.992" y1="115.8" y2="64.922" gradientTransform="scale(.125)" gradientUnits="userSpaceOnUse"><stop offset=".008" style="stop-color:#f6a323;stop-opacity:1"/><stop offset=".025" style="stop-color:#f7a724;stop-opacity:1"/><stop offset=".145" style="stop-color:#fac12b;stop-opacity:1"/><stop offset=".27" style="stop-color:#fcd32f;stop-opacity:1"/><stop offset=".401" style="stop-color:#fede32;stop-opacity:1"/><stop offset=".549" style="stop-color:#fee133;stop-opacity:1"/></linearGradient></defs><path d="M8 15.11c-3.492 0-7.25-2.184-7.25-6.985 0-4.8 3.758-6.984 7.25-6.984 1.934 0 3.727.636 5.047 1.8 1.441 1.274 2.203 3.067 2.203 5.184 0 2.11-.762 3.895-2.203 5.172C11.723 14.469 9.93 15.109 8 15.109m0 0" style="stroke:none;fill-rule:nonzero;fill:url(#a)"/><path d="M8 1.39c1.875 0 3.61.618 4.879 1.739C14.266 4.355 15 6.082 15 8.125c0 2.035-.734 3.758-2.121 4.984C11.602 14.24 9.87 14.86 8 14.86c-1.879 0-3.613-.613-4.879-1.726C1.734 11.914 1 10.183 1 8.125c0-2.066.734-3.8 2.121-5.02C4.383 2 6.117 1.391 8 1.391m0-.5C4.105.89.5 3.39.5 8.125c0 4.71 3.605 7.234 7.5 7.234s7.5-2.59 7.5-7.234C15.5 3.453 11.895.891 8 .891m0 0" style="stroke:none;fill-rule:nonzero;fill:#eb8f00;fill-opacity:1"/><path d="M39.625 10.688a2.69 2.69 0 0 1-.156-2.438c.343-.75 1.062-1.281 1.968-1.437 5.313-.907 10.97.375 15.563 3.53 1.688 1.157 3.219 2.532 4.469 4.126.093.125.156.219.218.344.688 1.124.47 2.437-.53 3.25A2.71 2.71 0 0 1 57.593 18l.406-.687-.5.593c-4.312-3.625-10-5.781-15.562-5.906-.97 0-1.813-.5-2.313-1.312ZM90.656 18.281c.813.344 1.406 1.063 1.563 1.875.156.844-.094 1.657-.781 2.344-3.782 3.813-9.157 6.031-14.72 6.125a20.9 20.9 0 0 1-6.062-.812 1.2 1.2 0 0 1-.344-.157c-1.218-.531-1.78-1.718-1.468-2.937.312-1.125 1.406-2.188 2.969-2.032l.062.813.063-.781c5.624.468 11.5-1.063 16.093-4.157.781-.562 1.75-.687 2.625-.28Zm0 0" style="fill-rule:nonzero;fill:#eb8f00;fill-opacity:1;stroke-width:1;stroke-linecap:butt;stroke-linejoin:miter;stroke:#eb8f00;stroke-opacity:1;stroke-miterlimit:10" transform="scale(.125)"/><path d="M9.516 8.688a.22.22 0 0 1-.11-.055c-.535-.461-1.199-.79-1.941-.953a4.43 4.43 0 0 0-2.16.027.25.25 0 0 1-.121.004.23.23 0 0 1-.168-.184.22.22 0 0 1 .093-.222A3.23 3.23 0 0 1 7.66 6.82a3.23 3.23 0 0 1 2.094 1.532.21.21 0 0 1-.012.242.23.23 0 0 1-.226.094m0 0" style="stroke:none;fill-rule:nonzero;fill:#242424;fill-opacity:1"/><path d="M3.398 15.441A2.3 2.3 0 0 1 2.023 15c-.777-.555-.91-1.465-1.023-2.266-.066-.449-.016-.73.031-.98a2 2 0 0 0-.011-.926c-.024-.098-.09-.254-.153-.402-.183-.418-.39-.895-.137-1.2.133-.164.364-.257.63-.257.242 0 .472.078.632.219.34.292.5.609.688 1.347.078.305.183.395.347.457a.3.3 0 0 0 .121.024c.192 0 .504-.102 1.051-.336.207-.09.469-.215.746-.352.856-.422 1.828-.894 2.489-.894q.163-.002.296.039c.31.086.516.293.57.558a.78.78 0 0 1-.273.75c-.23.196-1.25.672-1.87.903q.075.074.128.168c.094.187.094.418 0 .707a.6.6 0 0 1-.066.136c.18.223.226.492.136.782a.5.5 0 0 1-.082.168c.082.09.172.246.133.496-.093.586-.718.77-1.582 1.023l-.277.082a4 4 0 0 1-1.149.195m0 0" style="stroke:none;fill-rule:nonzero;fill:url(#b)"/><path d="M1.36 9.223c.167 0 .343.05.468.156.297.258.434.527.61 1.223.093.37.25.53.5.628a.6.6 0 0 0 .21.036c.243 0 .582-.11 1.149-.352.808-.344 2.316-1.226 3.137-1.226.082 0 .16.007.226.027.512.148.492.637.203.879-.199.168-1.332.707-1.949.914-.445.152-.531.199-.523.234q.002.012.027.012c.039 0 .117-.016.203-.016.05 0 .102.004.156.024.399.12.352.46.266.722-.063.188-.18.157-.16.25.008.04.09.067.117.102.125.14.188.324.113.57a.24.24 0 0 1-.117.153q-.1.066-.02.156c.067.074.22.129.18.39-.078.473-.71.614-1.683.903a3.7 3.7 0 0 1-1.075.183c-.46 0-.855-.129-1.23-.394-.668-.473-.797-1.227-.922-2.098-.129-.875.223-1.027.016-1.93-.086-.374-.57-1.109-.344-1.382.094-.11.262-.164.441-.164m0-.5c-.343 0-.644.125-.824.347-.351.422-.101.996.102 1.457.058.133.12.282.14.356.086.383.051.57.008.828-.047.254-.105.57-.035 1.059.125.855.266 1.82 1.129 2.437.46.324.957.484 1.523.484.364 0 .762-.066 1.215-.203q.14-.041.274-.078c.918-.27 1.64-.484 1.761-1.226a.8.8 0 0 0-.086-.551q.017-.043.028-.078a1.06 1.06 0 0 0-.09-.875c.008-.012.012-.028.016-.04.039-.124.16-.484.015-.831.613-.254 1.426-.641 1.652-.832a1.03 1.03 0 0 0 .36-.993c-.078-.359-.348-.632-.746-.75a1.4 1.4 0 0 0-.367-.046c-.72 0-1.72.488-2.598.917-.274.133-.535.262-.734.348-.317.133-.758.313-.954.313-.015 0-.027-.004-.03-.004-.079-.028-.134-.051-.196-.285C2.746 9.77 2.582 9.37 2.156 9a1.24 1.24 0 0 0-.797-.277m0 0" style="stroke:none;fill-rule:nonzero;fill:#eb8f00;fill-opacity:1"/><path d="M10.098 3.89c.523 0 1 .442 1 1.176 0 .735-.477 1.176-1 1.176-.524 0-1-.441-1-1.176s.476-1.175 1-1.175M5.766 2.754c-.524 0-1 .441-1 1.176 0 .738.476 1.18 1 1.18.527 0 1-.442 1-1.18 0-.735-.473-1.176-1-1.176m0 0" style="stroke:none;fill-rule:nonzero;fill:#242424;fill-opacity:1"/></svg>
